contributed-vectors/imka.svg

<svg xmlns="http://www.w3.org/2000/svg" xml:space="preserve" style="fill-rule:evenodd;clip-rule:evenodd;stroke-linejoin:round;stroke-miterlimit:2" viewBox="0 0 192 192"><path d="M164.5 21.5c0-5.519-4.481-10-10-10h-133c-5.519 0-10 4.481-10 10v133c0 5.519 4.481 10 10 10h133c5.519 0 10-4.481 10-10v-133Z" style="fill:#fff" transform="translate(8 8)"/><path d="M109.206 93.241a6.937 6.937 0 0 1 8.624-3.896.346.346 0 0 1 .07.019 6.938 6.938 0 0 1 3.821 9.989c-8.046 13.652-18.701 28.382-23.365 34.683a2.94 2.94 0 0 1-4.712 0c-4.664-6.301-15.317-21.032-23.357-34.685a6.938 6.938 0 0 1 3.815-9.979c.021-.015.044-.022.067-.03a6.942 6.942 0 0 1 8.63 3.898 109.49 109.49 0 0 0 2.054 4.607 12.293 12.293 0 0 0 22.293 0c.716-1.517 1.41-3.061 2.06-4.606Z" style="fill:#9abeff" transform="translate(16.68 13.894) scale(.82626)"/><path d="M72.959 47.919a6.909 6.909 0 0 1 11.07 3.126c.649 1.897 1.279 3.856 1.822 5.543a6.941 6.941 0 0 1-1.829 7.162 17.363 17.363 0 0 0-5.594 13.176 6.941 6.941 0 0 1-4.714 6.674c-1.236.422-2.563.871-3.834 1.301a6.943 6.943 0 0 1-8.987-4.998c-.424-1.75-.696-3.291-.696-4.588 0-10.987 4.96-20.826 12.762-27.396Z" style="fill:#98dc9a" transform="translate(16.68 13.894) scale(.82626)"/><path d="M101.824 151.033a3.925 3.925 0 0 1 5.95-.452c3.062 3.047 4.968 7.262 4.968 11.919 0 9.24-7.502 16.742-16.742 16.742-9.24 0-16.742-7.502-16.742-16.742 0-4.657 1.906-8.872 4.979-11.908a3.909 3.909 0 0 1 5.928.45c1.012 1.363 1.912 2.585 2.687 3.633a3.923 3.923 0 0 0 6.296 0c.775-1.048 1.675-2.27 2.676-3.642Z" style="fill:#ff837d" transform="matrix(.61923 0 0 .61923 36.554 34.467)"/><path d="M89.137 48.581a6.944 6.944 0 0 1 6.563-9.07c.1.002.2.001.3.001 19.76 0 35.803 16.043 35.803 35.803 0 1.297-.272 2.837-.768 4.569a6.869 6.869 0 0 1-8.89 4.945c-1.295-.359-2.623-.809-3.86-1.227a6.943 6.943 0 0 1-4.715-6.677c.005-.123.006-.244.006-.365 0-9.701-7.876-17.576-17.576-17.576h-.001a4.824 4.824 0 0 1-4.59-3.345l-2.272-7.058Z" style="fill:#f9de81" transform="translate(16.68 13.894) scale(.82626)"/></svg>

<?xml version="1.0" encoding="UTF-8" standalone="no"?>
<!DOCTYPE svg PUBLIC "-//W3C//DTD SVG 1.1//EN" "http://www.w3.org/Graphics/SVG/1.1/DTD/svg11.dtd">
<svg width="100%" height="100%" viewBox="0 0 192 192" version="1.1" xmlns="http://www.w3.org/2000/svg" xmlns:xlink="http://www.w3.org/1999/xlink" xml:space="preserve" xmlns:serif="http://www.serif.com/" style="fill-rule:evenodd;clip-rule:evenodd;stroke-linejoin:round;stroke-miterlimit:2;">
    <g id="Layer1">
        <g transform="matrix(1,0,0,1,8,8)">
            <path d="M164.5,21.5C164.5,15.981 160.019,11.5 154.5,11.5L21.5,11.5C15.981,11.5 11.5,15.981 11.5,21.5L11.5,154.5C11.5,160.019 15.981,164.5 21.5,164.5L154.5,164.5C160.019,164.5 164.5,160.019 164.5,154.5L164.5,21.5Z" style="fill:white;"/>
        </g>
        <g transform="matrix(0.619233,0,0,0.619233,36.5536,34.4666)">
            <g transform="matrix(1.33433,0,0,1.33433,-32.0953,-33.2223)">
                <path d="M109.206,93.241C110.611,89.879 114.378,88.177 117.83,89.345C117.854,89.348 117.877,89.356 117.9,89.364C119.86,90.026 121.421,91.528 122.16,93.46C122.899,95.392 122.738,97.552 121.721,99.353C113.675,113.005 103.02,127.735 98.356,134.036C97.801,134.779 96.928,135.217 96,135.217C95.072,135.217 94.199,134.779 93.644,134.036C88.98,127.735 78.327,113.004 70.287,99.351C69.271,97.552 69.111,95.394 69.848,93.464C70.586,91.535 72.146,90.035 74.102,89.372C74.123,89.357 74.146,89.35 74.169,89.342C77.623,88.173 81.393,89.876 82.799,93.24C83.444,94.788 84.137,96.33 84.853,97.847C86.871,102.182 91.219,104.954 96,104.953C100.781,104.953 105.129,102.181 107.146,97.847C107.862,96.33 108.556,94.786 109.206,93.241Z" style="fill:rgb(154,190,255);"/>
            </g>
            <g transform="matrix(1.33433,0,0,1.33433,-32.0953,-33.2223)">
                <path d="M72.959,47.919C74.715,46.414 77.107,45.887 79.332,46.515C81.557,47.144 83.32,48.844 84.029,51.045C84.678,52.942 85.308,54.901 85.851,56.588C86.669,59.128 85.958,61.912 84.022,63.75C80.569,66.933 78.424,71.498 78.424,76.56C78.424,76.681 78.425,76.803 78.428,76.926C78.471,79.938 76.567,82.634 73.714,83.6C72.478,84.022 71.151,84.471 69.88,84.901C68.025,85.529 65.991,85.345 64.279,84.393C62.568,83.441 61.338,81.81 60.893,79.903C60.469,78.153 60.197,76.612 60.197,75.315C60.197,64.328 65.157,54.489 72.959,47.919Z" style="fill:rgb(152,220,154);"/>
            </g>
            <path d="M101.824,151.033C102.501,150.107 103.55,149.523 104.695,149.436C105.839,149.349 106.965,149.767 107.774,150.581C110.836,153.628 112.742,157.843 112.742,162.5C112.742,171.74 105.24,179.242 96,179.242C86.76,179.242 79.258,171.74 79.258,162.5C79.258,157.843 81.164,153.628 84.237,150.592C85.043,149.781 86.164,149.364 87.304,149.451C88.445,149.537 89.49,150.119 90.165,151.042C91.177,152.405 92.077,153.627 92.852,154.675C93.592,155.67 94.76,156.256 96,156.256C97.24,156.256 98.408,155.67 99.148,154.675C99.923,153.627 100.823,152.405 101.824,151.033Z" style="fill:rgb(255,131,125);"/>
            <g transform="matrix(1.33433,0,0,1.33433,-32.0953,-33.2223)">
                <path d="M89.137,48.581C88.46,46.477 88.825,44.175 90.121,42.384C91.417,40.592 93.489,39.526 95.7,39.511C95.8,39.513 95.9,39.512 96,39.512C115.76,39.512 131.803,55.555 131.803,75.315C131.803,76.612 131.531,78.152 131.035,79.884C130.595,81.771 129.378,83.384 127.685,84.326C125.992,85.267 123.98,85.45 122.145,84.829C120.85,84.47 119.522,84.02 118.285,83.602C115.431,82.635 113.526,79.938 113.57,76.925C113.575,76.802 113.576,76.681 113.576,76.56C113.576,66.859 105.7,58.984 96,58.984C96,58.984 96,58.984 95.999,58.984C93.906,58.984 92.051,57.632 91.409,55.639C90.759,53.618 89.926,51.031 89.137,48.581Z" style="fill:rgb(249,222,129);"/>
            </g>
        </g>
    </g>
</svg>
